icons/coins.svg

<svg width="24" height="24" viewBox="0 0 24 24" fill="none" xmlns="http://www.w3.org/2000/svg">
<path fill-rule="evenodd" clip-rule="evenodd" d="M8.39999 3.84998C5.60592 3.84998 3.25 6.12245 3.25 9C3.25 10.8333 4.16932 12.4175 5.54396 13.3459C6.02784 11.514 7.27957 10.0221 8.95006 9.13286C8.95001 9.1219 8.94998 9.11094 8.94998 9.09998C8.94998 7.28581 9.67644 5.64131 10.8543 4.44152C10.1226 4.05176 9.26839 3.84998 8.39999 3.84998ZM9.15734 10.7541C7.86027 11.6206 7.00274 12.9657 6.84998 14.5352V14.9994C6.84998 17.877 9.20591 20.15 12 20.15C14.5914 20.15 16.818 18.1042 17.1161 15.5764C16.6291 15.69 16.1216 15.75 15.6 15.75C12.4983 15.75 9.89265 13.6266 9.15734 10.7541ZM17.8034 13.7562C17.6634 13.7742 17.5356 13.8308 17.4308 13.9151C16.862 14.1315 16.2448 14.25 15.6 14.25C12.7557 14.25 10.45 11.9442 10.45 9.09998C10.45 6.25571 12.7557 3.94998 15.6 3.94998C18.4442 3.94998 20.75 6.25571 20.75 9.09998C20.75 11.1559 19.5453 12.9304 17.8034 13.7562ZM18.65 15.0109C20.7883 13.9052 22.25 11.6733 22.25 9.09998C22.25 5.42728 19.2727 2.44998 15.6 2.44998C14.3163 2.44998 13.1175 2.81371 12.1012 3.44372C11.0136 2.7068 9.69675 2.34998 8.39999 2.34998C4.79407 2.34998 1.75 5.27755 1.75 9C1.75 11.6262 3.22456 13.8643 5.34998 14.9737V15C5.34998 18.7225 8.39409 21.65 12 21.65C15.6106 21.65 18.6439 18.6203 18.65 15.0109Z" fill="black"/>
</svg>

<svg xmlns="http://www.w3.org/2000/svg" fill="none" viewBox="0 0 24 24">
  <path fill="#000" fill-rule="evenodd" d="M8.4 3.85C5.606 3.85 3.25 6.122 3.25 9a5.22 5.22 0 0 0 2.294 4.346c.484-1.832 1.736-3.324 3.406-4.213V9.1c0-1.814.726-3.459 1.904-4.658A5.246 5.246 0 0 0 8.4 3.85Zm.757 6.904c-1.297.867-2.154 2.212-2.307 3.781V15c0 2.878 2.356 5.151 5.15 5.151 2.591 0 4.818-2.046 5.116-4.574a6.653 6.653 0 0 1-7.959-4.822Zm8.646 3.002a.745.745 0 0 0-.372.16 5.15 5.15 0 1 1 .373-.159Zm.847 1.255a6.65 6.65 0 1 0-6.549-11.567C11.014 2.707 9.697 2.35 8.4 2.35 4.794 2.35 1.75 5.278 1.75 9a6.714 6.714 0 0 0 3.6 5.974V15c0 3.723 3.044 6.65 6.65 6.65 3.61 0 6.644-3.03 6.65-6.64Z" clip-rule="evenodd"/>
</svg>
